!!!COM: Haydn, Franz Joseph
!!!OTL: String Quartet in F-sharp Minor
!!!OPS: Opus 50
!!!ONM: No. 4
!!!OMD: Allegro spirito
!!!OMV: 1
!!!SCT: H III:47
!!!SCA: Thematisch-bibliographisches Werkevererzeichnis (A. van Hoboken)
!!!YOR: Trautwein Edition
!!!ENC: Frances Bennion
!!!CDT: 1732/3/31/-1809/5/31/
!!!CNT: Oesterreich
!!!YEC: Copyright (c) 1994, 2000 Center for Computer Assisted Research in the Humanities
!!!YEM: Rights to all derivative editions reserved.
!!!YEM: Refer to licensing agreement for further details.
!!!YEN: United States of America
**kern	**kern	**kern	**kern
*k[f#c#g#]	*k[f#c#g#]	*k[f#c#g#]	*k[f#c#g#]
*f#:	*f#:	*f#:	*f#:
*clefF4	*clefC3	*clefG	*clefG
*M3/4	*M3/4	*M3/4	*M3/4
4.r	4.r	4.r	4.r
8C#	8c#	8c#	8c#
8C#	8c#	8c#	8c#
8C#	8c#	8c#	8c#
=1	=1	=1	=1
2F#	2f#	2f#	2f#
4C#	4c#	4c#	4c#
=2	=2	=2	=2
4AA	4A	4A	4A
2r	2r	2r	8r
.	.	.	8aa
.	.	.	8aa
.	.	.	8aa
=3	=3	=3	=3
2.r	2.r	2.r	4aa
.	.	.	8gg#
.	.	.	8ee#
.	.	.	8ee#
.	.	.	8ee#
=4	=4	=4	=4
2.r	2.r	2.r	4gg#
.	.	.	8ff#
.	.	.	8cc#
.	.	.	8cc#
.	.	.	8cc#
=5	=5	=5	=5
4.r	4.r	4.r	4ee
.	.	.	8dd
8F#	8A	8a	8cc#
8G#	8B	8g#	8b
8A	8c#	8f#	8a
=6	=6	=6	=6
4B	4d	4e#	4g#
2r	2r	2r	8r
.	.	.	8b
.	.	.	8b
.	.	.	8b
=7	=7	=7	=7
4.r	4.r	4.r	4dd
.	.	.	8cc#
8C#	8e#	8g#	8b
8FF#	8f#	8f#	8a
8C#	8B	8e#	8g#
=8	=8	=8	=8
4F#	4A	4f#	4f#
2r	8r	2r	2r
.	8c#	.	.
.	8c#	.	.
.	8c#	.	.
=9	=9	=9	=9
2.r	4e	8r	8r
.	.	4f#	8a#
.	8d	.	8b
.	8c#	8e	8cc#
.	8B	8d	8dd
.	8A	8c#	8ff#
=10	=10	=10	=10
2.r	4G#	4B	4ff#
.	8r	2r	8ee#
.	8B	.	4.r
.	8B	.	.
.	8B	.	.
=11	=11	=11	=11
2.r	4d	8r	8r
.	.	4e#	8g#
.	8c#	.	8b
.	8B	8e#	8dd
.	8A	8f#	8cc#
.	8G#	8e#	8b
=12	=12	=12	=12
4.r	4F#	4f#	4b
.	2r	2r	8a
8C#	.	.	4.r
8C#	.	.	.
8C#	.	.	.
=13	=13	=13	=13
4E	4.r	4.r	4.r
8D	.	.	.
8C#	8E	8ee	8aa
8BB	8e	8dd	8gg#
8AA	8e	8cc#	8aa
=14	=14	=14	=14
4GG#	4e	4b	4ddd
8r	2r	2r	2r
8BB	.	.	.
8BB	.	.	.
8BB	.	.	.
=15	=15	=15	=15
4D	4.r	4.r	4.r
8C#	.	.	.
8BB	8e	8dd	8gg#
8AA	8e	8cc#	8aa
8GG#	8dd	8b	8bb
=16	=16	=16	=16
4AA	4cc#	4a	4ccc#
2r	2r	2r	8r
.	.	.	8aa
.	.	.	8aa
.	.	.	8aa
=17	=17	=17	=17
8r	8r	8r	4gg#
8d	8e	8b	.
8c#	8A	8cc#	8aa
4.r	4.r	4.r	8ee
.	.	.	8ee
.	.	.	8ee
=18	=18	=18	=18
8r	8r	8r	4dd
8G#	8e	8b	.
8A	8a	8e	8cc#
4.r	8d	8f#	8b
.	8d	8f#	8b
.	8d	8f#	8b
=19	=19	=19	=19
2.r	4e	4g	4cc
.	8d	8f#	8b
.	8c#	8e	8a#
.	8d	8f#	8b
.	8B	8d	8g#
=20	=20	=20	=20
8r	8c#	8e	8a
8G#	8d	8e	8b
8A	8c#	8e	8cc#
8G#	8d	8e	8b
8A	8c#	8e	8cc#
8F#	8A	8a	8dd#
=21	=21	=21	=21
[2.E	8B	8g#	8ee
.	8A	8a	8ff#
.	8G#	8b	8gg#
.	8F#	8cc#	8aa
.	8A	8a	8ff#
.	8B	8f#	8dd#
=22	=22	=22	=22
2.E_	4G#	8e	8ee
.	.	8B	8gg#
.	4.F#	4c#	8bb
.	.	.	8aa#
.	.	4d#	8aa
.	8A	.	8ff#
=23	=23	=23	=23
2.E_	8G#	8e	8ee
.	8A	8d#	8ff#
.	8B	8d	8gg#
.	8c#	8c#	8aa
.	8r	8A	8ff#
.	8F#	8B	8dd#
=24	=24	=24	=24
2.E_	4G#	8G#	8ee
.	.	8B	8gg#
.	4.F#	4c#	8bb
.	.	.	8aa#
.	.	4d#	8aa
.	8A	.	8ff#
=25	=25	=25	=25
2.E]	4G#	8e	8ee
.	.	8B	8gg#
.	4.F#	4c#	8bb
.	.	.	8aa#
.	.	4d#	8aa
.	8A	.	8ff#
=26	=26	=26	=26
8E	8G#	8e	8ee
8D#	8d#	8d#	8dd#
8F#	8f#	8f#	8ff#
8E	8e	8e	8ee
8D	8d	8d	8dd
8BB	8B	8B	8b
=27	=27	=27	=27
2AA	2A	2a	2a
4EE	4E	8e	4e
.	.	8r	.
=28	=28	=28	=28
4CC#	16A	16c#	4c#
.	16c#	16e	.
.	16A	16c#	.
.	16c#	16e	.
2r	16A	16c#	8r
.	16c#	16e	.
.	16A	16c#	8aa
.	16c#	16e	.
.	16A	16c#	8aa
.	16c#	16e	.
.	16A	16c#	8aa
.	16c#	16e	.
=29	=29	=29	=29
4E	16B	16d	4bb
.	16G#	16e	.
.	16B	16d	.
.	16G#	16e	.
2r	16B	16d	8gg#
.	16G#	16e	.
.	16B	16d	8ee
.	16G#	16e	.
.	16B	16d	8ee
.	16G#	16e	.
.	16B	16d	8ee
.	16G#	16e	.
=30	=30	=30	=30
4AA	16A	16c#	4ccc#
.	16c#	16e	.
.	16A	16c#	.
.	16c#	16e	.
2r	16A	16c#	8aa
.	16c#	16e	.
.	16A	16c#	8ccc#
.	16c#	16e	.
.	16A	16c#	8ccc#
.	16c#	16e	.
.	16A	16c#	8ccc#
.	16c#	16e	.
=31	=31	=31	=31
4E	16G#	16B	4ddd
.	16E	16e	.
.	16G#	16B	.
.	16E	16e	.
2r	16G#	16B	8bb
.	16E	16e	.
.	16G#	16B	16bb
.	16E	16e	16gg#
.	16B	16d	8ee
.	16G#	16e	.
.	16B	16d	8ee
.	16G#	16e	.
=32	=32	=32	=32
4AA	16A	16c#	4eee
.	16c#	16e	.
.	16A	16c#	.
.	16c#	16e	.
2r	16A	16c#	8ccc#
.	16c#	16e	.
.	16A	16c#	8eee
.	16c#	16e	.
.	16A	16c#	8eee
.	16c#	16e	.
.	16A	16c#	8eee
.	16c#	16e	.
=33	=33	=33	=33
[2.D	4c#	16f#	4eee
.	.	16a#	.
.	.	16f#	.
.	.	16a#	.
.	4B	16f#	4ddd
.	.	16b	.
.	.	16f#	.
.	.	16b	.
.	4A#	16e	4ccc#
.	.	16cc#	.
.	.	16e	.
.	.	16cc#	.
=34	=34	=34	=34
8D]	16B	16d	4bb
.	16d	16f#	.
8D	16B	16d	.
.	16d	16f#	.
8D	16B	16d	8r
.	16d	16f#	.
8D	16B	16d	8ddd
.	16d	16f#	.
8D	16B	16d	8ddd
.	16d	16f#	.
8D	16B	16d	8ddd
.	16d	16f#	.
=35	=35	=35	=35
2.E	16G#	4f	4ddd
.	16B	.	.
.	16A	.	.
.	16G#	.	.
.	16A	4e	4ccc#
.	16c#	.	.
.	16A	.	.
.	16c#	.	.
.	16B	8d	4bb
.	16d	.	.
.	16B	8g#	.
.	16d	.	.
=36	=36	=36	=36
4AA	16c#	4a	4aa
.	16e	.	.
.	16c#	.	.
.	16e	.	.
2r	16c#	2r	8r
.	16e	.	.
.	16c#	.	8aa
.	16e	.	.
.	16c#	.	8aa
.	16e	.	.
.	16c#	.	8aa
.	16e	.	.
=37	=37	=37	=37
2.r	16d	4r	16bb
.	16e	.	16ccc#
.	16d	.	16bb
.	16e	.	16ccc#
.	8c#	16cc#	8aa
.	.	16ee	.
.	4.r	16cc#	8aa
.	.	16ee	.
.	.	16cc#	8aa
.	.	16ee	.
.	.	16cc#	8aa
.	.	16ee	.
=38	=38	=38	=38
2.r	2.r	16g#	16ddd
.	.	16ee	16eee
.	.	16g#	16ddd
.	.	16ee	16eee
.	.	8a	8ccc#
.	.	8aa	8aaa
.	.	8aa	8aaa
.	.	8aa	8aaa
=39	=39	=39	=39
4.r	4.r	[2.aa	[2.aaa
8E#	8e#	.	.
8E#	8e#	.	.
8E#	8e#	.	.
=40	=40	=40	=40
4E#	4e#	4.aa]	4.aaa]
8F#	8f#	.	.
8E	8e	8aa	8aaa
8G	8g	8aa	8aaa
8F#	8f#	8aa	8aaa
=41	=41	=41	=41
8E	8e	8aa	8aaa
8D	8d	8aa	8aaa
8C#	8c#	8aa	8aaa
8BB	8B	8aa	8aaa
8AA	8A	8.aa	8.aaa
8GG	8G	.	.
.	.	32bb	32bbb
.	.	32ccc#	32cccc#
=42	=42	=42	=42
4FF#	4F#	4ddd	4dddd
2r	2r	8r	8r
.	.	8d	8f#
.	.	8c#	8e
.	.	8B	8d
=43	=43	=43	=43
8EE	4.r	4.A	4.c#
8E	.	.	.
8E	.	.	.
8E	8A	8c#	8e
8E	8B	8B	8d
8E	8d	8G#	8B
=44	=44	=44	=44
4AA	4c#	16A	4A
.	.	16c#	.
.	.	16e	.
.	.	16c#	.
8r	8r	16a	2r
.	.	16e	.
8A	8e 8c#	16cc#	.
.	.	16a	.
8A	8e 8c#	16ee	.
.	.	16cc#	.
8A	8e 8c#	16aa	.
.	.	16cc#	.
=45	=45	=45	=45
4G#	4e 4B	4dd	8ee
.	.	.	16dd#
.	.	.	16ee
8r	8r	2r	16ccc#
.	.	.	16ddd
8G#	8e 8B	.	16bb
.	.	.	16gg#
8G#	8e 8B	.	16ee
.	.	.	16dd#
8G#	8e 8B	.	16ff#
.	.	.	16dd
=46	=46	=46	=46
4A	4e 4c#	16A	4cc#
.	.	16c#	.
.	.	16e	.
.	.	16c#	.
8r	8r	16a	2r
.	.	16e	.
8A	8c# 8e	16cc#	.
.	.	16a	.
8A	8e 8c#	16ee	.
.	.	16cc#	.
8A	8e 8c#	16aa	.
.	.	16cc#	.
=47	=47	=47	=47
4G#	4B 4e	4dd	8ee
.	.	.	16dd#
.	.	.	16ee
8r	8r	2r	16ccc#
.	.	.	16ddd
8G#	8e 8B	.	16bb
.	.	.	16gg#
8G#	8e 8B	.	16ee
.	.	.	16dd#
8G#	8e 8B	.	16ff#
.	.	.	16dd
=48	=48	=48	=48
4A	4e 4c#	4r	16cc#
.	.	.	16ee
.	.	.	16aa
.	.	.	16ccc#
2r	2r	8A	8eee
.	.	16c#	8eee
.	.	16e	.
.	.	16a	8eee
.	.	16cc#	.
.	.	16ee	8eee
.	.	16cc#	.
=49	=49	=49	=49
2.r	2.r	8ff#	16eee
.	.	.	16ddd
.	.	8ee	16ddd
.	.	.	16ccc#
.	.	8dd	16ccc#
.	.	.	16bb
.	.	8cc#	16bb
.	.	.	16aa
.	.	8b	16aa
.	.	.	16gg#
.	.	8a	16gg#
.	.	.	16ff#
=50	=50	=50	=50
2.r	2.r	2g#	8ff#
.	.	.	8ee#
.	.	.	8ee
.	.	.	8dd#
.	.	4a	8dd
.	.	.	8cc#
=51	=51	=51	=51
8D	8B	8d	8b
8E	4B	8e	4b
8F	.	8f	.
8E	4B	8e	4b
8G	.	8g	.
8F	[8B	8f	[8b
=52	=52	=52	=52
8D	8B]	8d	8b]
8E	4B	8e	4b
8F	.	8f	.
8E	4B	8e	4b
8G	.	8g	.
8F	8B	8f	8b
=53	=53	=53	=53
8D#	8c	8d#	8cc
8E	4c	8e	4cc
8F#	.	8f#	.
8E	4c	8e	4cc
8c	.	8cc	.
8D#	8c	8d#	8cc
=54	=54	=54	=54
4E	4c#	4a	16cc#
.	.	.	16a
.	.	.	16ee
.	.	.	16cc#
2r	2r	2r	16aa
.	.	.	16ee
.	.	.	16ccc#
.	.	.	16aa
.	.	.	16eee
.	.	.	16ccc#
.	.	.	16aa
.	.	.	16ee
=55	=55	=55	=55
8E	8d	8g#	2.bb
8E	8d	8g#	.
8E	8d	8g#	.
8E	8d	8g#	.
8E	8d	8g#	.
8E	8d	8g#	.
=56	=56	=56	=56
8AA	8c#	4a	4aa
8EE	8E	.	.
4CC#	4C#	8r	8r
.	.	8a	8aa
4r	4r	8e	8ee
.	.	8c#	8cc#
=57	=57	=57	=57
8DD	8D	4f#	4ff#
8FF#	8F#	.	.
8AA	8A	8r	8r
8D	8d	8f#	8ff#
8F#	8f#	8d	8dd
8B	8d	8B	8b
=58	=58	=58	=58
8E	4c#	4.A	4.a
8A	.	.	.
8c#	4r	.	.
8e	.	8c#	8cc#
8d	4E	8B	8b
8B	.	8G#	8g#
=59	=59	=59	=59
8AA	8A	4A	4a
8EE	8E	.	.
4CC#	4C#	8r	8r
.	.	8a	8aa
4r	4r	8e	8ee
.	.	8c#	8cc#
=60	=60	=60	=60
8DD	8D	4f#	4ff#
8FF#	8F#	.	.
8AA	8A	8r	8r
8D	8d	8f#	8ff#
8F#	8f#	8d	8dd
8B	8d	8B	8b
=61	=61	=61	=61
8E	4c#	4.A	4.a
8A	.	.	.
8c#	4r	.	.
8e	.	8c#	8cc#
8d	4E	8B	8b
8B	.	8G#	8g#
=62	=62	=62	=62
4A	4A	8c#	8a
.	.	8d	8b
4r	4r	8e	8cc#
.	.	8f#	8dd
4E	4e	8d	8b
.	.	8B	8g#
=63	=63	=63	=63
4AA	8c#	8a	8a
.	8d	8g#	8b
4r	8e	8g	8cc#
.	8d	8f#	8dd
4E	8B	8d	8b
.	8d	8B	8g#
=64	=64	=64	=64
4AA	4c#	4c#	4a
8r	8r	8r	8r
8A	8a	8a	8aa
8A	8a	8a	8aa
8A	8a	8a	8aa
=65	=65	=65	=65
2d	2dd	2dd	2ddd
4A	4a	4a	4aa
=66	=66	=66	=66
4D	16d	16f#	4ff#
.	16f#	16a	.
.	16d	16f#	.
.	16f#	16a	.
2r	16d	16f#	8r
.	16f#	16a	.
.	16d	16f#	8dd
.	16f#	16a	.
.	16d	16f#	8dd
.	16f#	16a	.
.	16d	16f#	8dd
.	16f#	16a	.
=67	=67	=67	=67
4AA	16e	16g	4ee
.	16c#	16a	.
.	16e	16g	.
.	16c#	16a	.
2r	16e	16g	8cc#
.	16c#	16a	.
.	16e	16g	8a
.	16c#	16a	.
.	16e	16g	8a
.	16c#	16a	.
.	16e	16g	8a
.	16c#	16a	.
=68	=68	=68	=68
4D	16d	16f#	4ff#
.	16f#	16a	.
.	16d	16f#	.
.	16f#	16a	.
2r	16d	16f#	8dd
.	16f#	16a	.
.	16d	16f#	8ff#
.	16f#	16a	.
.	16d	16f#	8ff#
.	16f#	16a	.
.	16d	16f#	8ff#
.	16f#	16a	.
=69	=69	=69	=69
4AA	16A	16e	4gg
.	16c#	16a	.
.	16A	16e	.
.	16c#	16a	.
2r	16A	16e	8ee
.	16c#	16a	.
.	16A	16e	8cc#
.	16c#	16a	.
.	16e	16g	8a
.	16c#	16a	.
.	16e	16g	8gg
.	16c#	16a	.
=70	=70	=70	=70
4DD	16d	16f#	4aa
.	16f#	16a	.
.	16d	16f#	.
.	16f#	16a	.
2r	16d	16f#	8ff#
.	16f#	16a	.
.	16d	16f#	8aa
.	16f#	16a	.
.	16d	16f#	8aa
.	16f#	16a	.
.	16d	16f#	8aa
.	16f#	16a	.
=71	=71	=71	=71
2.BB	16d#	16f#	4ccc
.	16f#	16a	.
.	16a	16dd#	.
.	16d#	16a	.
.	16e	16g#	4bb
.	16B	16b	.
.	16G#	16ee	.
.	16B	16b	.
.	16d#	16f#	4aa
.	16e	16g#	.
.	16f#	16a	.
.	16d#	16f#	.
=72	=72	=72	=72
4E	16e	16g	4gg
.	16g	16b	.
.	16e	16g	.
.	16g	16b	.
2r	16e	16g	8r
.	16g	16b	.
.	16e	16g	8bb
.	16g	16b	.
.	16e	16g	8bb
.	16g	16b	.
.	16e	16g	8bb
.	16g	16b	.
=73	=73	=73	=73
2.C#	16e#	16g#	4ddd
.	16g#	16b	.
.	16b	16ee#	.
.	16e#	16b	.
.	16f#	16a	4ccc#
.	16c#	16cc#	.
.	16A	16ff#	.
.	16c#	16cc#	.
.	16e#	16g#	4bb
.	16g#	16b	.
.	16f#	16a	.
.	16e#	16g#	.
=74	=74	=74	=74
4F#	16f#	4f#	4aa
.	16c#	.	.
.	16A	.	.
.	16c#	.	.
2r	16A	2r	8r
.	16c#	.	.
.	16A	.	8ff#
.	16c#	.	.
.	16A	.	8ff#
.	16c#	.	.
.	16A	.	8ff#
.	16c#	.	.
=75	=75	=75	=75
2.r	16B	4r	16gg#
.	16c#	.	16aa
.	16B	.	16gg#
.	16c#	.	16aa
.	8A	16a	8ff#
.	.	16cc#	.
.	4.r	16a	8ff#
.	.	16cc#	.
.	.	16a	8ff#
.	.	16cc#	.
.	.	16a	8ff#
.	.	16cc#	.
=76	=76	=76	=76
4.r	4.r	16e#	16bb
.	.	16cc#	16ccc#
.	.	16e#	16bb
.	.	16cc#	16ccc#
.	.	8f#	8aa
8F#	8f#	8aa	8ccc#
8F#	8f#	8aa	8ccc#
8F#	8f#	8aa	8ccc#
=77	=77	=77	=77
2.G#	16d#	16ff#	4bb#
.	16e	16gg#	.
.	16d#	16ff#	.
.	16e	16gg#	.
.	4c#	4ee	4ccc#
.	4cc#	4ee	16gg#
.	.	.	16aa
.	.	.	16gg#
.	.	.	16aa
=78	=78	=78	=78
2.GG#	2b#	2dd#	4aa
.	.	.	4ff#
.	4cc#	8cc#	8ee
.	.	16b#	16dd#
.	.	16cc#	16ee
=79	=79	=79	=79
8G#	8g#	4b#	4dd#
8F#	8f#	.	.
8A	8a	2r	2r
8F#	8f#	.	.
8D#	8d#	.	.
8BB#	8B#	.	.
=80	=80	=80	=80
4C#	4c#	16cc#	16ee
.	.	16g#	16cc#
.	.	16e	16g#
.	.	16g#	16cc#
8r	8r	16e	16g#
.	.	16c#	16e
8c#	8g#	16e	16g#
.	.	16g#	16cc#
8c#	8g#	16cc#	16ee
.	.	16g#	16cc#
8c#	8g#	16cc#	16ee
.	.	16ee	16gg#
=81	=81	=81	=81
4B#	4g#	4dd#	16gg#
.	.	.	16ff#
.	.	.	16ee#
.	.	.	16ff#
8r	8r	8r	16bb
.	.	.	16aa
8B#	8g#	8dd#	16gg#
.	.	.	16aa
8B#	8g#	8dd#	16gg#
.	.	.	16ff#
8B#	8g#	8dd#	16ee
.	.	.	16dd#
=82	=82	=82	=82
4c#	4g#	16cc#	16ee
.	.	16g#	16cc#
.	.	16e	16g#
.	.	16g#	16cc#
8r	8r	16e	16g#
.	.	16c#	16e
8c#	8g#	16e	16g#
.	.	16g#	16cc#
8c#	8g#	16cc#	16ee
.	.	16g#	16cc#
8c#	8g#	16cc#	16ee
.	.	16ee	16gg#
=83	=83	=83	=83
4B#	4g#	4dd#	16gg#
.	.	.	16ff#
.	.	.	16ee#
.	.	.	16ff#
8r	8r	8r	16bb
.	.	.	16aa
8B#	8g#	8dd#	16gg#
.	.	.	16aa
8B#	8g#	8dd#	16gg#
.	.	.	16ff#
8B#	8g#	8dd#	16ee
.	.	.	16dd#
=84	=84	=84	=84
4c#	4g#	4ee	16ee
.	.	.	16cc#
.	.	.	16ee
.	.	.	16gg#
8r	8r	8r	8ccc#
8C#	8g#	8cc#	8ee
8C#	8g#	8cc#	8ee
8C#	8g#	8cc#	8ee
=85	=85	=85	=85
8F#	8f#	8cc#	8dd#
8G#	8g#	4cc#	4dd#
8A	8a	.	.
8G#	8g#	4cc#	4dd#
8B	8b	.	.
8A	8a	[8cc#	[8dd#
=86	=86	=86	=86
8F#	8f#	8cc#]	8dd#]
8G#	8g#	4cc#	4dd#
8A	8a	.	.
8G#	8g#	4cc#	4dd#
8B	8b	.	.
8A	8a	[8cc#	8dd#
=87	=87	=87	=87
8F##	8f##	8cc#]	8ee
8G#	8g#	4cc#	4ee
8A#	8a#	.	.
8F##	8f##	4cc#	4ee
8e	8ee	.	.
8F##	8f##	[8cc#	[8ee
=88	=88	=88	=88
[2.G#	[2.g#	8cc#]	8ee]
.	.	8dd#	8ff#
.	.	8ee	8gg#
.	.	8dd#	8ff#
.	.	8ff#	8aa
.	.	8ee	8gg#
=89	=89	=89	=89
4G#]	4g#]	4ee	4gg#
4r	4r	4r	4r
4GG#	4d#	4f#	4b#
=90	=90	=90	=90
4C#	16c#	16e	4cc#
.	16e	16g#	.
.	16c#	16e	.
.	16e	16g#	.
2r	16c#	16e	8r
.	16e	16g#	.
.	16c#	16e	8cc#
.	16e	16g#	.
.	16c#	16e	8cc#
.	16e	16g#	.
.	16c#	16e	8cc#
.	16e	16g#	.
=91	=91	=91	=91
4GG#	16d#	16f#	4dd#
.	16B#	16g#	.
.	16d#	16f#	.
.	16B#	16g#	.
2r	16d#	16f#	8b#
.	16B#	16g#	.
.	16d#	16f#	8g#
.	16B#	16g#	.
.	16d#	16f#	8g#
.	16B#	16g#	.
.	16d#	16f#	8g#
.	16B#	16g#	.
=92	=92	=92	=92
4C#	16c#	16e	4ee
.	16e	16g#	.
.	16c#	16e	.
.	16e	16g#	.
2r	16c#	16e	8cc#
.	16e	16g#	.
.	16c#	16e	8ee
.	16e	16g#	.
.	16c#	16e	8ee
.	16e	16g#	.
.	16c#	16e	8ee
.	16e	16g#	.
=93	=93	=93	=93
4BB	16d#	16a	4ff#
.	16B	16b	.
.	16f#	16a	.
.	16d#	16b	.
2r	16f#	16a	8dd#
.	16d#	16b	.
.	16f#	16a	8b
.	16d#	16b	.
.	16f#	16a	8b
.	16d#	16b	.
.	16f#	16a	8b
.	16d#	16b	.
=94	=94	=94	=94
4E	16e	16g#	4gg#
.	16g#	16b	.
.	16e	16g#	.
.	16g#	16b	.
2r	16e	16g#	8ee
.	16g#	16b	.
.	16e	16g#	8gg#
.	16g#	16b	.
.	16e	16g#	8gg#
.	16g#	16b	.
.	16e	16g#	8gg#
.	16g#	16b	.
=95	=95	=95	=95
4D#	16f##	16cc#	4aa#
.	16d#	16dd#	.
.	16a#	16cc#	.
.	16f##	16dd#	.
2r	16a#	16cc#	8ff##
.	16f##	16dd#	.
.	16a#	16cc#	8dd#
.	16f##	16dd#	.
.	16a#	16cc#	8dd#
.	16f##	16dd#	.
.	16a#	16cc#	8dd#
.	16f##	16dd#	.
=96	=96	=96	=96
4GG#	16g#	16b	4bb
.	16b	16dd#	.
.	16g#	16b	.
.	16b	16dd#	.
2r	16g#	16b	8gg#
.	16b	16dd#	.
.	16g#	16b	8bb
.	16b	16dd#	.
.	16g#	16b	8bb
.	16b	16dd#	.
.	16g#	16b	8bb
.	16b	16dd#	.
=97	=97	=97	=97
4.d#	4.a	4ff#	4bb
.	.	8r	8aa
8d#	8f#	8a	16ff#
.	.	.	16dd#
8d#	8f#	8a	8b
8d#	8f#	8a	8b
=98	=98	=98	=98
4d#	4f#	4a	4b
8r	8r	8r	8r
8d#	8f#	8a	8bb
8d#	8f#	8a	8bb
8d#	8f#	8a	8bb
=99	=99	=99	=99
4.d#	4f#	4.a	4ccc
.	8r	.	8aa
8d#	8f#	8a	16ff#
.	.	.	16dd#
8d#	8f#	8a	8b
8d#	8f#	8a	8b
=100	=100	=100	=100
4d#	4f#	4a	4b
8r	2r	2r	2r
8BB	.	.	.
8BB	.	.	.
8BB	.	.	.
=101	=101	=101	=101
2E	2.r	4.r	2.r
.	.	8b	.
4BB	.	8b	.
.	.	8b	.
=102	=102	=102	=102
4GG#	2.r	2ee	4.r
2r	.	.	.
.	.	.	8bb
.	.	4b	8bb
.	.	.	8bb
=103	=103	=103	=103
2.r	4.r	4g#	2eee
.	.	8r	.
.	8e	8g#	.
.	8e	8g#	4bb
.	8e	8g#	.
=104	=104	=104	=104
2.r	2b	2dd	4gg#
.	.	.	8r
.	.	.	8bb
.	4g#	4b	8bb
.	.	.	8bb
=105	=105	=105	=105
4.r	4e#	4g#	2ddd
.	8r	8r	.
8C#	8g#	8e#	.
8C#	8g#	8e#	4bb
8C#	8g#	8e#	.
=106	=106	=106	=106
2F#	4c#	4f#	4aa
.	8r	8r	8r
.	8f#	8a	8ccc#
4C#	8f#	8a	8ccc#
.	8f#	8a	8ccc#
=107	=107	=107	=107
4AA	4c#	4a	2fff#
2r	8r	8r	.
.	8a	8cc#	.
.	8a	8cc#	4ccc#
.	8a	8cc#	.
=108	=108	=108	=108
2.r	2dd	2ff#	4aa
.	.	.	8r
.	.	.	8aa
.	4a	4dd	8aa
.	.	.	8aa
=109	=109	=109	=109
4.r	4f#	4a	8ddd
.	.	.	8aa
.	4D	2r	8ff#
8A	.	.	8dd
8A	4D	.	8a
8A	.	.	8f#
=110	=110	=110	=110
8d	4D	4.r	4d
8A	.	.	.
8F#	8r	.	2r
8D	8f#	8a	.
8AA	8f#	8a	.
8FF#	8f#	8a	.
=111	=111	=111	=111
2.DD	8a	8dd	4.r
.	8f#	8a	.
.	8d	8f#	.
.	8F#	8A	8B#
.	8F#	8A	8B#
.	8F#	8A	8B#
=112	=112	=112	=112
4.CC#	4F#	4A	4.c#
.	8E#	8G#	.
8CC#	8F#	8A	8B#
8CC#	8F#	8A	8B#
8CC#	8F#	8A	8B#
=113	=113	=113	=113
4.CC#	4F#	4A	4.c#
.	8E#	8G#	.
8BBB#	8F#	8A	8d#
8BBB#	8F#	8A	8d#
8BBB#	8F#	8A	8d#
=114	=114	=114	=114
4CC#	4E#	4G#	4c#
8r	8r	8r	8r
8BBB#	8F#	8A	8d#
8BBB#	8F#	8A	8d#
8BBB#	8F#	8A	8d#
=115	=115	=115	=115
4CC#	4E#	4G#	4c#
8r	8r	8r	8r
8C#	8c#	8c#	8c#
8C#	8c#	8c#	8c#
8C#	8c#	8c#	8c#
=116	=116	=116	=116
2F#	2f#	2f#	2f#
4C#	4c#	4c#	4c#
=117	=117	=117	=117
4AA	4A	4A	4A
2r	2r	2r	8r
.	.	.	8aa
.	.	.	8aa
.	.	.	8aa
=118	=118	=118	=118
2.r	4r	4r	4aa
.	4b	4dd	8gg#
.	.	.	8ee#
.	4r	4r	8ee#
.	.	.	8ee#
=119	=119	=119	=119
2.r	4r	4r	4gg#
.	4a	4cc#	8ff#
.	.	.	8cc#
.	4r	4r	8cc#
.	.	.	8cc#
=120	=120	=120	=120
4.r	4.r	4.r	4ee
.	.	.	8dd
8F#	8A	8a	8cc#
8G#	8B	8g#	8b
8A	8c#	8f#	8a
=121	=121	=121	=121
4B	4d	4e#	4g#
2r	2r	2r	8r
.	.	.	8b
.	.	.	8b
.	.	.	8b
=122	=122	=122	=122
4.r	4.r	4.r	4dd
.	.	.	8cc#
8C#	8e#	8g#	8b
8FF#	8f#	8f#	8a
8C#	8B	8e#	8g#
=123	=123	=123	=123
4F#	4A	4f#	4f#
8r	2r	2r	2r
8C#	.	.	.
8C#	.	.	.
8C#	.	.	.
=124	=124	=124	=124
4E	4c#	4A#	16f#
.	.	.	16g#
.	.	.	16a#
.	.	.	16b
8D	8d	8B	16cc#
.	.	.	16dd
8C#	4.r	8e	16ee
.	.	.	16ff#
8BB	.	8d	16gg#
.	.	.	16aa
8AA	.	8c#	16bb
.	.	.	16ccc#
=125	=125	=125	=125
4GG#	4E	4B	16ddd
.	.	.	16ccc#
.	.	.	16bb
.	.	.	16aa
8r	2r	2r	16gg#
.	.	.	16ff#
8BB	.	.	16ee
.	.	.	16dd
8BB	.	.	16cc#
.	.	.	16b
8BB	.	.	16a
.	.	.	16g#
=126	=126	=126	=126
4D	2.r	8r	16f#
.	.	.	16e
.	.	4e	16g#
.	.	.	16e
8C#	.	.	16a
.	.	.	16e
8BB	.	8d	16b
.	.	.	16e
8AA	.	8c#	16cc#
.	.	.	16e
8GG#	.	8B	16dd
.	.	.	16e
=127	=127	=127	=127
4AA	2.r	4A	16cc#
.	.	.	16a
.	.	.	16cc#
.	.	.	16ee
2r	.	2r	8aa
.	.	.	8aa
.	.	.	8aa
.	.	.	8aa
=128	=128	=128	=128
8r	8r	8r	4gg#
8d	8e	8b	.
8c#	8A	8cc#	8aa
4.r	4.r	4.r	8ee
.	.	.	8ee
.	.	.	8ee
=129	=129	=129	=129
8r	8r	8r	4dd
8G#	8e	8b	.
8A	8a	8e	8cc#
4.r	8d	8f#	8b
.	8d	8f#	8b
.	8d	8f#	8b
=130	=130	=130	=130
2.r	4e	4g	4cc
.	8d	8f#	8b
.	8c#	8e	8a#
.	8d	8f#	8b
.	8e	8g	8cc#
=131	=131	=131	=131
2.r	4f#	4a	4dd
.	8e	8g	8cc#
.	8d	8f#	8b
.	8e	8g	8cc#
.	8f#	8a	8dd#
=132	=132	=132	=132
2.r	8g	8b	8ee
.	8f#	8a	8dd#
.	8a	8cc	8ff#
.	8g	8b	8ee
.	8e	[4b	8gg
.	8d#	.	8ff#
=133	=133	=133	=133
4r	8f#	4b]	8aa
.	8e	.	8gg
8d	8f#	8b	8bb
8c#	8e	8cc#	8aa#
8e	8g	8a#	8ccc#
8d	8f#	8b	8bb
=134	=134	=134	=134
2.B	2.e#	2.g#	4ddd
.	.	.	8ccc#
.	.	.	8bb
.	.	.	8aa
.	.	.	8gg#
=135	=135	=135	=135
4A	4f#	4a	4ccc#
2r	2r	2r	8r
.	.	.	8ff#
.	.	.	8ff#
.	.	.	8ff#
=136	=136	=136	=136
2.r	8r	8r	4aa
.	8B	8d	.
.	8B	8d	8gg#
.	8B	8d	8gg#
.	4d	4f	8gg#
.	.	.	8gg#
=137	=137	=137	=137
2.r	8c#	8e	4bb
.	8c#	8e	.
.	8c#	8e	8aa#
.	8c#	8e	8aa#
.	4e	4g	8aa#
.	.	.	8aa#
=138	=138	=138	=138
2.r	8d	8f#	4ccc#
.	8d	8f#	.
.	8d	8f#	8bb
.	8d	8f#	8bb
.	4g	4b	8bb
.	.	.	8bb
=139	=139	=139	=139
4.r	2f#	2a#	4eee
.	.	.	4ddd
8F#	.	.	.
8F#	8a#	4ee	4ccc#
8F#	8cc#	.	.
=140	=140	=140	=140
2B	2f#	4.dd	4ccc#
.	.	.	8bb
.	.	8bb	8ddd
4G#	4g#	8bb	8ddd
.	.	8bb	8ddd
=141	=141	=141	=141
4.E#	4.g#	4.bb	4ddd
.	.	.	8ccc#
8e#	8dd	8gg#	8bb
8e#	8dd	8gg#	8bb
8e#	8dd	8gg#	8bb
=142	=142	=142	=142
4e#	4dd	4gg#	4bb
8r	8r	8r	8r
8D	8d	8d	8d
8D	8d	8d	8d
8D	8d	8d	8d
=143	=143	=143	=143
4D	4d	4d	4d
8r	8r	8r	8r
8e#	8dd	8gg#	8bb
8e#	8dd	8gg#	8bb
8e#	8dd	8gg#	8bb
=144	=144	=144	=144
4e#	4dd	4gg#	4bb
8r	8r	8r	8r
8BB	8B	8B	8B
8BB	8B	8B	8B
8BB	8B	8B	8B
=145	=145	=145	=145
4BB	4B	4B	4B
8r	8r	8r	8r
8BB#	8B#	8B#	8B#
8BB#	8B#	8B#	8B#
8BB#	8B#	8B#	8B#
=146	=146	=146	=146
4BB#	4B#	4B#	4B#
8r	8r	8r	8r
8C#	8c#	8c#	8c#
8C#	8c#	8c#	8c#
8C#	8c#	8c#	8c#
=147	=147	=147	=147
2F#	2f#	2f#	2f#
4C#	4c#	4c#	4c#
=148	=148	=148	=148
4FF#	16F#	16A#	4A#
.	16A#	16c#	.
.	16F#	16A#	.
.	16A#	16c#	.
2r	16F#	16A#	8r
.	16A#	16c#	.
.	16F#	16A#	8ff#
.	16A#	16c#	.
.	16F#	16A#	8ff#
.	16A#	16c#	.
.	16F#	16A#	8ff#
.	16A#	16c#	.
=149	=149	=149	=149
4CC#	16G#	16B	4gg#
.	16E#	16c#	.
.	16G#	16B	.
.	16E#	16c#	.
2r	16G#	16B	8ee#
.	16E#	16c#	.
.	16G#	16B	8cc#
.	16E#	16c#	.
.	16G#	16B	8cc#
.	16E#	16c#	.
.	16G#	16B	8cc#
.	16E#	16c#	.
=150	=150	=150	=150
4F#	16F#	16A#	4aa#
.	16A#	16c#	.
.	16F#	16A#	.
.	16A#	16c#	.
2r	16F#	16A#	8ff#
.	16A#	16c#	.
.	16F#	16A#	8aa#
.	16A#	16c#	.
.	16F#	16A#	8aa#
.	16A#	16c#	.
.	16F#	16A#	8aa#
.	16A#	16c#	.
=151	=151	=151	=151
4C#	16E#	16G#	4bb
.	16C#	16c#	.
.	16E#	16G#	.
.	16C#	16c#	.
2r	16E#	16G#	8gg#
.	16C#	16c#	.
.	16E#	16G#	16gg#
.	16C#	16c#	16ee#
.	16G#	16B	8cc#
.	16E#	16c#	.
.	16G#	16B	8cc#
.	16E#	16c#	.
=152	=152	=152	=152
4FF#	16F#	16A#	4ccc#
.	16A#	16c#	.
.	16F#	16A#	.
.	16A#	16c#	.
2r	16F#	16A#	8aa#
.	16A#	16c#	.
.	16F#	16A#	8ccc#
.	16A#	16c#	.
.	16F#	16A#	8ccc#
.	16A#	16c#	.
.	16F#	16A#	8ccc#
.	16A#	16c#	.
=153	=153	=153	=153
[2.BB	4A#	16d#	4ccc#
.	.	16f##	.
.	.	16d#	.
.	.	16f##	.
.	4G#	16d#	4bb
.	.	16g#	.
.	.	16d#	.
.	.	16g#	.
.	4F##	16c#	4aa#
.	.	16a#	.
.	.	16c#	.
.	.	16a#	.
=154	=154	=154	=154
8BB]	16G#	16B	4gg#
.	16B	16d#	.
8BB	16G#	16B	.
.	16B	16d#	.
8BB	16G#	16B	8r
.	16B	16d#	.
8BB	16G#	16B	8bb
.	16B	16d#	.
8BB	16G#	16B	8bb
.	16B	16d#	.
8BB	16G#	16B	8bb
.	16B	16d#	.
=155	=155	=155	=155
2.C#	16E#	4d	4bb
.	16G#	.	.
.	16F#	.	.
.	16E#	.	.
.	16F#	4c#	4aa#
.	16A#	.	.
.	16F#	.	.
.	16A#	.	.
.	16G#	8B	4gg#
.	16B	.	.
.	16G#	8e#	.
.	16B	.	.
=156	=156	=156	=156
4FF#	16A#	4f#	4ff#
.	16c#	.	.
.	16A#	.	.
.	16c#	.	.
2r	16A#	2r	8r
.	16c#	.	.
.	16A#	.	8ff#
.	16c#	.	.
.	16A#	.	8ff#
.	16c#	.	.
.	16A#	.	8ff#
.	16c#	.	.
=157	=157	=157	=157
2.r	16B	4r	16gg#
.	16c#	.	16aa#
.	16B	.	16gg#
.	16c#	.	16aa#
.	8A#	16a#	8ff#
.	.	16cc#	.
.	4.r	16a#	8ff#
.	.	16cc#	.
.	.	16a#	8ff#
.	.	16cc#	.
.	.	16a#	8ff#
.	.	16cc#	.
=158	=158	=158	=158
2.r	2.r	16e#	16bb
.	.	16cc#	16ccc#
.	.	16e#	16bb
.	.	16cc#	16ccc#
.	.	8f#	8aa#
.	.	8ff#	8ddd#
.	.	8ff#	8ddd#
.	.	8ff#	8ddd#
=159	=159	=159	=159
2.r	4.r	[2.ff#	4.fff#
.	8a#	.	8ccc##
.	8a#	.	8ccc##
.	8a#	.	8ccc##
=160	=160	=160	=160
2.r	4a#	2.ff#_	4ccc##
.	8b	.	8ddd#
.	8a#	.	8ccc#
.	8cc#	.	8eee
.	8b	.	8ddd#
=161	=161	=161	=161
2.r	8a#	2ff#]	8ccc#
.	8g#	.	8bb
.	8f#	.	8aa#
.	8e	.	8gg#
.	8d#	8ff#	8.ff#
.	8c#	8ee	.
.	.	.	32gg#
.	.	.	32aa#
=162	=162	=162	=162
2.r	4B	4dd#	4bb
.	2r	8r	8r
.	.	8b	8ddd#
.	.	8a#	8ccc#
.	.	8g#	8bb
=163	=163	=163	=163
8C#	4.r	4.f#	4.aa#
8C#	.	.	.
8C#	.	.	.
8C#	8f#	8a#	8ccc#
8C#	8g#	8g#	8bb
8C#	8B	8e#	8gg#
=164	=164	=164	=164
4F#	4A#	16f#	4ff#
.	.	16c#	.
.	.	16A#	.
.	.	16c#	.
8r	8r	16f#	2r
.	.	16a#	.
8F#	16A#	16cc#	.
.	16c#	16ff#	.
8F#	16A#	16aa#	.
.	16c#	16ff#	.
8F#	16A#	16cc#	.
.	16c#	16a#	.
=165	=165	=165	=165
4E#	4G#	4b	8cc#
.	.	.	16b#
.	.	.	16cc#
8r	8r	2r	16aa#
.	.	.	16bb
8E#	16G#	.	16gg#
.	16c#	.	16ee#
8E#	16G#	.	16cc#
.	16c#	.	16b#
8E#	16G#	.	16dd#
.	16c#	.	16b
=166	=166	=166	=166
4F#	4c#	16f#	4a#
.	.	16c#	.
.	.	16A#	.
.	.	16c#	.
8r	8r	16f#	2r
.	.	16a#	.
8F#	16A#	16cc#	.
.	16c#	16ff#	.
8F#	16A#	16aa#	.
.	16c#	16ff#	.
8F#	16A#	16cc#	.
.	16c#	16a#	.
=167	=167	=167	=167
4E#	4G#	4b	8cc#
.	.	.	16b#
.	.	.	16cc#
8r	8r	2r	16aa#
.	.	.	16bb
8E#	16G#	.	16gg#
.	16c#	.	16ee#
8E#	16G#	.	16cc#
.	16c#	.	16b#
8E#	16G#	.	16dd#
.	16c#	.	16b
=168	=168	=168	=168
4F#	4c#	16f#	16a#
.	.	16c#	16cc#
.	.	16A#	16ff#
.	.	16c#	16aa#
2r	2r	16f#	8ccc#
.	.	16c#	.
.	.	16A#	8ccc#
.	.	16c#	.
.	.	16f#	8ccc#
.	.	16a#	.
.	.	16b	8ccc#
.	.	16cc#	.
=169	=169	=169	=169
2.r	2.r	8dd#	16ccc#
.	.	.	16bb
.	.	8cc#	16bb
.	.	.	16aa#
.	.	8b	16aa#
.	.	.	16gg#
.	.	8a#	16gg#
.	.	.	16ff#
.	.	8g#	16ff#
.	.	.	16ee#
.	.	8f#	16ee#
.	.	.	16dd#
=170	=170	=170	=170
2.r	2.r	2e#	8dd#
.	.	.	8cc##
.	.	.	8cc#
.	.	.	8b#
.	.	4f#	8b
.	.	.	8a#
=171	=171	=171	=171
8BB	8G#	8B	8g#
8C#	4G#	8c#	4g#
8D	.	8d	.
8C#	4G#	8c#	4g#
8E	.	8e	.
8D	[8G#	8d	[8g#
=172	=172	=172	=172
8BB	8G#]	8B	8g#]
8C#	4G#	8c#	4g#
8D	.	8d	.
8C#	4G#	8c#	4g#
8E	.	8e	.
8D	8G#	8d	8g#
=173	=173	=173	=173
8BB#	8A	8B#	8a
8C#	4A	8c#	4a
8D#	.	8d#	.
8C#	4A	8c#	4a
8A	.	8a	.
8BB#	8A	8B#	8a
=174	=174	=174	=174
4C#	4A#	4f#	16a#
.	.	.	16f#
.	.	.	16a#
.	.	.	16cc#
2r	2r	2r	16ff#
.	.	.	16cc#
.	.	.	16ff#
.	.	.	16aa#
.	.	.	16ccc#
.	.	.	16aa#
.	.	.	16ff#
.	.	.	16cc#
=175	=175	=175	=175
8C#	8B	8e#	2.gg#
8C#	8B	8e#	.
8C#	8B	8e#	.
8C#	8B	8e#	.
8C#	8B	8e#	.
8C#	8B	8e#	.
=176	=176	=176	=176
8F#	8A#	4f#	4ff#
8C#	8c#	.	.
4AA#	4A#	8r	8r
.	.	8f#	8ff#
4r	4r	8c#	8cc#
.	.	8A#	8a#
=177	=177	=177	=177
8BB	8B	4d#	4dd#
8D#	8d#	.	.
8F#	8f#	8r	8r
8B	8b	8dd#	8ddd#
8d#	8dd#	8b	8bb
8B	8b	8g#	8gg#
=178	=178	=178	=178
8C#	4a#	4.f#	4.ff#
8F#	.	.	.
8A#	4r	.	.
8c#	.	8a#	8aa#
8B	4C#	8g#	8gg#
8G#	.	8e#	8ee#
=179	=179	=179	=179
8F#	8F#	4f#	4ff#
8C#	8c#	.	.
4AA#	4A#	8r	8r
.	.	8f#	8ff#
4r	4r	8c#	8cc#
.	.	8A#	8a#
=180	=180	=180	=180
8BB	8B	4d#	4dd#
8D#	8d#	.	.
8F#	8f#	8r	8r
8B	8b	8dd#	8ddd#
8d#	8dd#	8b	8bb
8B	8b	8g#	8gg#
=181	=181	=181	=181
8C#	4a#	4.f#	4.ff#
8F#	.	.	.
8A#	4r	.	.
8c#	.	8a#	8aa#
8B	4C#	8g#	8gg#
8G#	.	8e#	8ee#
=182	=182	=182	=182
4F#	4F#	8a#	8ff#
.	.	8b	8gg#
4r	4r	8cc#	8aa#
.	.	8dd#	8bb
4C#	4c#	8b	8gg#
.	.	8g#	8ee#
=183	=183	=183	=183
4F#	8f#	8a#	8ff#
.	8e#	8b	8gg#
4r	8e	8cc#	8aa#
.	8d#	8dd#	8bb
4C#	8c#	8b	8gg#
.	8B	8g#	8ee#
=184	=184	=184	=184
4FF#	4A#	4f#	4ff#
2r	2r	2r	2r
==	==	==	==
*-	*-	*-	*-
!!!RWG1: This file contains only pitch and duration data.
!!!RWG2: Transposing instruments are not transposed.
!!!RWG3: Spines may have incompatible meters.
!!!RWG4: Durations of rests and tied notes may be interpreted.
!!!RWG: Key is interpreted using the Humdrum key tool.
!!!GTL: 6 Quartetti ("Prussian")
!!!AFT: stage1
!!!END: 1997/04/15
!!!KEY: 174813985
!!!EMD: Converted from MuseData to Humdrum Dec 16, 2000, by Andreas Kornstaedt using muse2kern.
!!!EMD: Manual editing by Craig Sapp, Nov 2001
